X: 254
T: Hai wawa
%%abc-version 2.0
%%abcx-abcm2ps-target-version 5.9.1 (29 Sep 2008)
%%abc-creator hum2abc beta
%%abcx-conversion-date 2013/10/02 07:52:29
%%abc-edited-by Helmut Schaffrath
%%humdrum-veritas 3119945085
%%humdrum-veritas-data 1797535181
%%continueall 1
%%barnumbers 0
L: 1/16
M: 2/4
K: F
d2 d e f2 A c [I:setbarnb 1]| 
d e d cd4 | 
c d f2 f d c A | 
G2> A2G4 | 
f2 f d f d c A | 
G A c A G F D C | 
F2F4c2 | 
A2> G2 E2 D2 | 
C6D2 | 
C8 |]  



